logo.svg

<?xml version="1.0" encoding="UTF-8" standalone="no"?>
<!-- Created with Inkscape (http://www.inkscape.org/) -->

<svg
   width="256.0px"
   height="256.0px"
   viewBox="0 0 256.0 256.0"
   version="1.1"
   id="SVGRoot"
   xmlns="http://www.w3.org/2000/svg"
   xmlns:svg="http://www.w3.org/2000/svg">
  <defs
     id="defs888" />
  <g
     id="layer1">
    <path
       style="color:#000000;fill:#ffffff;stroke-width:3;stroke-linecap:round;stroke-linejoin:round;-inkscape-stroke:none"
       d="M 128,147.37175 A 126.5,61.601174 0 0 0 1.5,208.97293 126.5,61.601174 0 0 0 42.924486,254.50004 126.02526,182.48902 0 0 1 128,206.23938 126.02526,182.48902 0 0 1 213.26155,254.41021 126.5,61.601174 0 0 0 254.5,208.97293 126.5,61.601174 0 0 0 128,147.37175 Z"
       id="path12652" />
    <path
       style="color:#000000;fill:#000000;stroke-linecap:round;stroke-linejoin:round;-inkscape-stroke:none"
       d="m 128,145.87109 c -35.12936,0 -66.943483,6.91622 -90.105469,18.19532 C 14.732545,175.3455 -3.568885e-6,191.12962 0,208.97266 c -1.7776008e-6,0.001 -1.7776008e-6,0.003 0,0.004 0.0375529,18.2037 15.681921,35.10715 42.318359,46.89453 0.638399,0.28257 1.387343,0.0874 1.806641,-0.4708 22.972948,-30.63994 52.890739,-45.54968 83.875,-45.66016 31.04127,0.018 61.03213,14.89882 84.0625,45.57032 0.41956,0.55911 1.16969,0.75434 1.80859,0.4707 C 240.391,243.99846 255.9581,227.1328 256,208.97656 v -0.004 C 256,191.12962 241.26745,175.3455 218.10547,164.06641 194.94348,152.78731 163.12936,145.87109 128,145.87109 Z m 0,1 c 34.7346,0 66.17101,6.87646 88.79297,17.89258 C 239.41493,175.7798 253,192.79434 253,208.97266 252.9604,225.17538 238.93615,239.04851 213.66211,250.54102 190.29442,219.93052 159.77733,202.74023 128,202.74023 h -0.006 C 96.272789,202.85116 65.832104,220.0509 42.521484,250.63281 17.130225,239.13345 3.0346295,225.21945 3,208.97266 v -0.002 C 3.0010893,192.79313 16.585977,175.77935 39.207031,164.76367 61.828995,153.74755 93.265404,146.87109 128,146.87109 Z"
       id="path12654" />
    <ellipse
       style="fill:#ffffff;stroke:none;stroke-width:3;stroke-linecap:round;stroke-linejoin:round;stroke-miterlimit:4;stroke-dasharray:none"
       id="path1289"
       cx="128.71465"
       cy="87.971153"
       rx="85.397751"
       ry="87.431038" />
    <path
       id="path3024"
       style="fill:#000000;stroke:none;stroke-width:3;stroke-miterlimit:4;stroke-dasharray:none"
       d="m 127.10938,0 c 0,0 -6.59987,0.16186148 -9.78711,0.56835937 C 90.254986,4.020489 63.76046,20.25931 52.5,36.998047 c -3.36316,4.999356 -7.379446,14.37453 -10.041016,26.3125 -2.47806,11.114891 -2.321903,17.686586 -2.902343,22.058594 -0.71978,5.421487 0.136626,9.365044 -7.589844,14.015625 -8.53593,5.137794 -12.46861,8.463044 -18.3125,15.474614 C 5.4345469,124.72154 0,136.52611 0,144.52149 c 0,9.7553 5.701115,19.89918 14.859375,26.4414 5.80711,4.14833 17.04046,7.98155 23.46875,7.95704 10.93082,0.62717 27.052681,-3.04691 32.212891,-11.90821 3.18948,-6.6234 1.134658,-13.09241 -0.107422,-19.92383 -1.53893,-5.8086 -1.671072,-7.30859 -1.669922,-18.92578 -0.99758,-18.85295 4.751732,-34.549533 8.982422,-52.205079 1.40689,-6.102714 0.972072,-8.846169 -2.455078,-15.523437 -3.7752,-7.355351 -4.611005,-10.667946 -4.546875,-18.015625 0.0865,-9.899677 2.467957,-14.724918 10.648437,-21.578125 C 90.579508,13.143433 102.77808,6.9583833 114.22852,4.1914063 118.39601,3.1843407 127.0957,2.6855469 127.0957,2.6855469 h 1.8086 c 0,0 8.69969,0.4987938 12.86718,1.5058594 11.45044,2.766977 23.64901,8.9520267 32.83594,16.6484377 8.18048,6.853207 10.56194,11.678448 10.64844,21.578125 0.0641,7.347679 -0.77168,10.660274 -4.54688,18.015625 -3.42715,6.677268 -3.86196,9.420723 -2.45507,15.523437 4.23069,17.655546 9.98,33.352129 8.98242,52.205079 10e-4,11.61719 -0.13099,13.11718 -1.66992,18.92578 -1.24208,6.83142 -3.29691,13.30043 -0.10743,19.92383 5.16021,8.8613 21.28207,12.53538 32.2129,11.90821 6.42829,0.0245 17.66164,-3.80871 23.46874,-7.95704 C 250.29889,164.42067 256,154.27679 256,144.52149 c 0,-7.99538 -5.43455,-19.79995 -13.6543,-29.66211 -5.84389,-7.01157 -9.77657,-10.33682 -18.3125,-15.474614 -7.72647,-4.650581 -6.87006,-8.594138 -7.58984,-14.015625 -0.58044,-4.372008 -0.42428,-10.943703 -2.90234,-22.058594 C 210.87945,51.372577 206.86316,41.997403 203.5,36.998047 192.23954,20.25931 165.74501,4.020489 138.67773,0.56835937 135.49049,0.16186148 128.89062,0 128.89062,0 Z" />
    <path
       id="path6633"
       style="stroke:none;stroke-width:3;stroke-linecap:round;stroke-linejoin:round"
       d="m 69.881835,150 v 10 l 44.999995,20 c 6.24816,2.77696 8.89562,13.55898 13,20 4.18332,-5.97404 7.96182,-17.65578 13.23633,-20 l 45,-20 v -10 l -47.26366,15 c 0,0 -7.22581,2 -10.83871,2 -3.62343,0 -10.87028,-2 -10.87028,-2 z" />
    <path
       style="color:#000000;fill:#000000;stroke-linecap:round;stroke-linejoin:round;-inkscape-stroke:none"
       d="M 131.37891,123.07422 C 130.72086,122.8049 129.99986,123.28897 130,124 v 12.60352 c 4.6e-4,0.53299 0.41882,0.97196 0.95117,0.99804 l 35,1.69922 c 1.1271,0.0593 1.47398,-1.50238 0.42774,-1.92578 z"
       id="path14979" />
    <path
       style="color:#000000;fill:#000000;stroke-linecap:round;stroke-linejoin:round;-inkscape-stroke:none"
       d="M 124.62109,123.07422 89.621094,137.375 c -1.046234,0.4234 -0.699367,1.9851 0.427734,1.92578 l 35.000002,-1.69922 c 0.53235,-0.0261 0.95071,-0.46505 0.95117,-0.99804 V 124 c 1.4e-4,-0.71103 -0.72086,-1.1951 -1.37891,-0.92578 z"
       id="path15145" />
    <path
       id="path15670"
       style="color:#000000;fill:#000000;stroke-width:2;stroke-linecap:round;stroke-linejoin:round;-inkscape-stroke:none"
       d="m 161.87305,47.927734 c -7.28211,-0.139866 -14.63925,2.748016 -22.03711,8.236328 A 1.0001,1.0001 0 0 0 139.44336,57.125 l 1.2793,7.96875 a 1.0001,1.0001 0 0 0 1.48437,0.708984 c 7.49579,-4.293851 14.43236,-7.456454 21.17383,-7.734375 6.74147,-0.27792 13.38241,2.228913 20.61133,9.63086 a 1.0001,1.0001 0 0 0 1.71093,-0.609375 l 0.54102,-5.97461 a 1.0001,1.0001 0 0 0 -0.27148,-0.779296 c -7.32642,-7.699272 -14.88772,-11.757997 -22.64454,-12.339844 -0.4848,-0.03637 -0.9696,-0.05904 -1.45507,-0.06836 z" />
    <path
       id="path15848"
       style="color:#000000;fill:#000000;stroke-width:2;stroke-linecap:round;stroke-linejoin:round;-inkscape-stroke:none"
       d="m 94.126953,47.927734 c -0.485474,0.0093 -0.970278,0.03199 -1.455078,0.06836 -7.756806,0.581847 -15.318115,4.640573 -22.644531,12.339844 a 1.0001,1.0001 0 0 0 -0.271485,0.779296 l 0.541016,5.97461 a 1.0001,1.0001 0 0 0 1.710937,0.609375 c 7.22892,-7.401947 13.869857,-9.90878 20.611329,-9.63086 6.741471,0.277921 13.678039,3.440524 21.173829,7.734375 a 1.0001,1.0001 0 0 0 1.48437,-0.708984 l 1.2793,-7.96875 a 1.0001,1.0001 0 0 0 -0.39258,-0.960938 C 108.7662,50.67575 101.40907,47.787868 94.126953,47.927734 Z" />
    <path
       style="color:#000000;fill:#000000;stroke-linecap:round;stroke-linejoin:round;-inkscape-stroke:none"
       d="m 115.00977,148.5 c -0.66205,1.5e-4 -1.14125,0.63196 -0.96289,1.26953 l 12.99023,46.5 c 0.27313,0.97311 1.65265,0.97311 1.92578,0 l 12.99023,-46.5 c 0.17836,-0.63757 -0.30084,-1.26938 -0.96289,-1.26953 z"
       id="path14451" />
  </g>
</svg>

<?xml version="1.0" encoding="UTF-8" standalone="no"?>
<!-- Created with Inkscape (http://www.inkscape.org/) -->

<svg
   width="256.0px"
   height="256.0px"
   viewBox="0 0 256.0 256.0"
   version="1.1"
   id="SVGRoot"
   sodipodi:docname="logo.svg"
   inkscape:version="1.1.2 (76b9e6a115, 2022-02-25)"
   xmlns:inkscape="http://www.inkscape.org/namespaces/inkscape"
   xmlns:sodipodi="http://sodipodi.sourceforge.net/DTD/sodipodi-0.dtd"
   xmlns="http://www.w3.org/2000/svg"
   xmlns:svg="http://www.w3.org/2000/svg">
  <sodipodi:namedview
     id="namedview893"
     pagecolor="#ffffff"
     bordercolor="#111111"
     borderopacity="1"
     inkscape:pageshadow="0"
     inkscape:pageopacity="0"
     inkscape:pagecheckerboard="1"
     inkscape:document-units="px"
     showgrid="true"
     inkscape:zoom="6.2217172"
     inkscape:cx="200.26626"
     inkscape:cy="133.00187"
     inkscape:window-width="3840"
     inkscape:window-height="2096"
     inkscape:window-x="0"
     inkscape:window-y="27"
     inkscape:window-maximized="1"
     inkscape:current-layer="layer1"
     showguides="true"
     inkscape:guide-bbox="true">
    <inkscape:grid
       type="xygrid"
       id="grid956" />
    <sodipodi:guide
       position="128,271"
       orientation="-1,0"
       id="guide5884"
       inkscape:label="Mitte"
       inkscape:locked="false"
       inkscape:color="rgb(0,0,255)" />
  </sodipodi:namedview>
  <defs
     id="defs888" />
  <g
     inkscape:label="Ebene 1"
     inkscape:groupmode="layer"
     id="layer1">
    <g
       id="path1393">
      <path
         style="color:#000000;fill:#ffffff;stroke-width:3;stroke-linecap:round;stroke-linejoin:round;-inkscape-stroke:none"
         d="M 128,147.37175 A 126.5,61.601174 0 0 0 1.5,208.97293 126.5,61.601174 0 0 0 42.924486,254.50004 126.02526,182.48902 0 0 1 128,206.23938 126.02526,182.48902 0 0 1 213.26155,254.41021 126.5,61.601174 0 0 0 254.5,208.97293 126.5,61.601174 0 0 0 128,147.37175 Z"
         id="path12652" />
      <path
         style="color:#000000;fill:#000000;stroke-linecap:round;stroke-linejoin:round;-inkscape-stroke:none"
         d="m 128,145.87109 c -35.12936,0 -66.943483,6.91622 -90.105469,18.19532 C 14.732545,175.3455 -3.568885e-6,191.12962 0,208.97266 c -1.7776008e-6,0.001 -1.7776008e-6,0.003 0,0.004 0.0375529,18.2037 15.681921,35.10715 42.318359,46.89453 0.638399,0.28257 1.387343,0.0874 1.806641,-0.4708 22.972948,-30.63994 52.890739,-45.54968 83.875,-45.66016 31.04127,0.018 61.03213,14.89882 84.0625,45.57032 0.41956,0.55911 1.16969,0.75434 1.80859,0.4707 C 240.391,243.99846 255.9581,227.1328 256,208.97656 v -0.004 C 256,191.12962 241.26745,175.3455 218.10547,164.06641 194.94348,152.78731 163.12936,145.87109 128,145.87109 Z m 0,1 c 34.7346,0 66.17101,6.87646 88.79297,17.89258 C 239.41493,175.7798 253,192.79434 253,208.97266 252.9604,225.17538 238.93615,239.04851 213.66211,250.54102 190.29442,219.93052 159.77733,202.74023 128,202.74023 h -0.006 C 96.272789,202.85116 65.832104,220.0509 42.521484,250.63281 17.130225,239.13345 3.0346295,225.21945 3,208.97266 v -0.002 C 3.0010893,192.79313 16.585977,175.77935 39.207031,164.76367 61.828995,153.74755 93.265404,146.87109 128,146.87109 Z"
         id="path12654"
         sodipodi:nodetypes="sssccccccscssssccsccssss" />
    </g>
    <ellipse
       style="fill:#ffffff;stroke:none;stroke-width:3;stroke-linecap:round;stroke-linejoin:round;stroke-miterlimit:4;stroke-dasharray:none"
       id="path1289"
       cx="128.71465"
       cy="87.971153"
       rx="85.397751"
       ry="87.431038" />
    <path
       id="path3024"
       style="fill:#000000;stroke:none;stroke-width:3;stroke-miterlimit:4;stroke-dasharray:none"
       d="m 127.10938,0 c 0,0 -6.59987,0.16186148 -9.78711,0.56835937 C 90.254986,4.020489 63.76046,20.25931 52.5,36.998047 c -3.36316,4.999356 -7.379446,14.37453 -10.041016,26.3125 -2.47806,11.114891 -2.321903,17.686586 -2.902343,22.058594 -0.71978,5.421487 0.136626,9.365044 -7.589844,14.015625 -8.53593,5.137794 -12.46861,8.463044 -18.3125,15.474614 C 5.4345469,124.72154 0,136.52611 0,144.52149 c 0,9.7553 5.701115,19.89918 14.859375,26.4414 5.80711,4.14833 17.04046,7.98155 23.46875,7.95704 10.93082,0.62717 27.052681,-3.04691 32.212891,-11.90821 3.18948,-6.6234 1.134658,-13.09241 -0.107422,-19.92383 -1.53893,-5.8086 -1.671072,-7.30859 -1.669922,-18.92578 -0.99758,-18.85295 4.751732,-34.549533 8.982422,-52.205079 1.40689,-6.102714 0.972072,-8.846169 -2.455078,-15.523437 -3.7752,-7.355351 -4.611005,-10.667946 -4.546875,-18.015625 0.0865,-9.899677 2.467957,-14.724918 10.648437,-21.578125 C 90.579508,13.143433 102.77808,6.9583833 114.22852,4.1914063 118.39601,3.1843407 127.0957,2.6855469 127.0957,2.6855469 h 1.8086 c 0,0 8.69969,0.4987938 12.86718,1.5058594 11.45044,2.766977 23.64901,8.9520267 32.83594,16.6484377 8.18048,6.853207 10.56194,11.678448 10.64844,21.578125 0.0641,7.347679 -0.77168,10.660274 -4.54688,18.015625 -3.42715,6.677268 -3.86196,9.420723 -2.45507,15.523437 4.23069,17.655546 9.98,33.352129 8.98242,52.205079 10e-4,11.61719 -0.13099,13.11718 -1.66992,18.92578 -1.24208,6.83142 -3.29691,13.30043 -0.10743,19.92383 5.16021,8.8613 21.28207,12.53538 32.2129,11.90821 6.42829,0.0245 17.66164,-3.80871 23.46874,-7.95704 C 250.29889,164.42067 256,154.27679 256,144.52149 c 0,-7.99538 -5.43455,-19.79995 -13.6543,-29.66211 -5.84389,-7.01157 -9.77657,-10.33682 -18.3125,-15.474614 -7.72647,-4.650581 -6.87006,-8.594138 -7.58984,-14.015625 -0.58044,-4.372008 -0.42428,-10.943703 -2.90234,-22.058594 C 210.87945,51.372577 206.86316,41.997403 203.5,36.998047 192.23954,20.25931 165.74501,4.020489 138.67773,0.56835937 135.49049,0.16186148 128.89062,0 128.89062,0 Z"
       sodipodi:nodetypes="csssssssscccccsccsccsscscccccsssssssscc" />
    <path
       id="path6633"
       style="stroke:none;stroke-width:3;stroke-linecap:round;stroke-linejoin:round"
       inkscape:transform-center-y="5.8333324"
       d="m 69.881835,150 v 10 l 44.999995,20 c 6.24816,2.77696 8.89562,13.55898 13,20 4.18332,-5.97404 7.96182,-17.65578 13.23633,-20 l 45,-20 v -10 l -47.26366,15 c 0,0 -7.22581,2 -10.83871,2 -3.62343,0 -10.87028,-2 -10.87028,-2 z"
       sodipodi:nodetypes="ccscscccscc" />
    <g
       id="path6828"
       inkscape:transform-center-x="-5.8333344"
       inkscape:transform-center-y="1.775e-06">
      <path
         style="color:#000000;fill:#000000;stroke-linecap:round;stroke-linejoin:round;-inkscape-stroke:none"
         d="M 131.37891,123.07422 C 130.72086,122.8049 129.99986,123.28897 130,124 v 12.60352 c 4.6e-4,0.53299 0.41882,0.97196 0.95117,0.99804 l 35,1.69922 c 1.1271,0.0593 1.47398,-1.50238 0.42774,-1.92578 z"
         id="path14979"
         sodipodi:nodetypes="ccccccc" />
    </g>
    <g
       id="path7567"
       inkscape:transform-center-x="5.8333374"
       inkscape:transform-center-y="1.775e-06">
      <path
         style="color:#000000;fill:#000000;stroke-linecap:round;stroke-linejoin:round;-inkscape-stroke:none"
         d="M 124.62109,123.07422 89.621094,137.375 c -1.046234,0.4234 -0.699367,1.9851 0.427734,1.92578 l 35.000002,-1.69922 c 0.53235,-0.0261 0.95071,-0.46505 0.95117,-0.99804 V 124 c 1.4e-4,-0.71103 -0.72086,-1.1951 -1.37891,-0.92578 z"
         id="path15145"
         sodipodi:nodetypes="ccccccc" />
    </g>
    <g
       id="rect10077">
      <path
         id="path15670"
         style="color:#000000;fill:#000000;stroke-width:2;stroke-linecap:round;stroke-linejoin:round;-inkscape-stroke:none"
         d="M 161.87305 47.927734 C 154.59094 47.787868 147.2338 50.67575 139.83594 56.164062 A 1.0001 1.0001 0 0 0 139.44336 57.125 L 140.72266 65.09375 A 1.0001 1.0001 0 0 0 142.20703 65.802734 C 149.70282 61.508883 156.63939 58.34628 163.38086 58.068359 C 170.12233 57.790439 176.76327 60.297272 183.99219 67.699219 A 1.0001 1.0001 0 0 0 185.70312 67.089844 L 186.24414 61.115234 A 1.0001 1.0001 0 0 0 185.97266 60.335938 C 178.64624 52.636666 171.08494 48.577941 163.32812 47.996094 C 162.84332 47.959728 162.35852 47.937059 161.87305 47.927734 z " />
    </g>
    <g
       id="path11029">
      <path
         id="path15848"
         style="color:#000000;fill:#000000;stroke-width:2;stroke-linecap:round;stroke-linejoin:round;-inkscape-stroke:none"
         d="M 94.126953 47.927734 C 93.641479 47.937059 93.156675 47.959728 92.671875 47.996094 C 84.915069 48.577941 77.35376 52.636667 70.027344 60.335938 A 1.0001 1.0001 0 0 0 69.755859 61.115234 L 70.296875 67.089844 A 1.0001 1.0001 0 0 0 72.007812 67.699219 C 79.236732 60.297272 85.877669 57.790439 92.619141 58.068359 C 99.360612 58.34628 106.29718 61.508883 113.79297 65.802734 A 1.0001 1.0001 0 0 0 115.27734 65.09375 L 116.55664 57.125 A 1.0001 1.0001 0 0 0 116.16406 56.164062 C 108.7662 50.67575 101.40907 47.787868 94.126953 47.927734 z " />
    </g>
    <g
       id="path11148"
       inkscape:transform-center-y="3.75">
      <path
         style="color:#000000;fill:#000000;stroke-linecap:round;stroke-linejoin:round;-inkscape-stroke:none"
         d="m 115.00977,148.5 c -0.66205,1.5e-4 -1.14125,0.63196 -0.96289,1.26953 l 12.99023,46.5 c 0.27313,0.97311 1.65265,0.97311 1.92578,0 l 12.99023,-46.5 c 0.17836,-0.63757 -0.30084,-1.26938 -0.96289,-1.26953 z"
         id="path14451"
         sodipodi:nodetypes="ccccccc" />
    </g>
  </g>
</svg>
